X:102
T:102 Untitled Waltz
C:Welch MS
I:abc2nwc
M:3/4
L:1/8
K:C
c3/2d/2 e3g|f3/2e/2 d3c|Bdfdag|e3/2g/2 c'4|c3/2d/2 e3g|f3/2e/2 d3c|Bdfdag|c6|
c3/2d/2 e3g|f3/2e/2 d3c|Bdfdag|e3/2g/2 c'4|c3/2d/2 e3g|f3/2e/2 d3c|Bdfdag|c6||
e3/2f/2 g2g2|e3/2f/2 g2g2|ab/2a/2gabc'/2a/2|ag g4|efgeag|fe e2ed|dcdGAB|B2c4|
e3/2f/2 g2g2|e3/2f/2 g2g2|ab/2a/2gabc'/2a/2|ag g4|efgeag|fe e2ed|dcdGAB|B2c4|]

